!!!OTL: Wenn ich ihn nur habe.
!!!OTL-incipit: WENN ICH IHN NUR HABE
!!!COM: Luise Reichardt
!!!ARE: Europa, Mitteleuropa, Deutschland
!!!SCT: F1011
!!!TXL: @@DE
!!!YEM: Copyright 1995, estate of Helmut Schaffrath.
**kern	**text
*ICvox	*
*clefG2	*
*M4/4	*
*met(c)	*
*k[b-e-a-d-g-]	*
*D-:	*
=1	=1
!LO:TX:a:t=Nicht zu langſam.	!
{4a-	1._Wenn
4a-	ich
4ff	ihn
4ee-	nur
=2	=2
2dd-	ha-
2a-}	-be,
=3	=3
{4a-	wenn
4dd-/	er
4cc/	mein
4gn	nur
=4	=4
2.a-	iſt,
4r}	.
=5	=5
{4an	wenn
4an	mein
4b-/	Herʒ
4dd-/	bis
=6	=6
4ff/	hin
4ee-/	ʒum
(>4.ee-/	Gra-
8dd-/)	.
=7	=7
2cc/}	-be
{4b-/	ſei-
4cc/	-ne
=8	=8
4dd-/	Treue
4b-/	.
4a-	nie
4gn	ver-
=9	=9
2a-	-gißt,
2r}	.
=10	=10
{4a-	weiß
4a-	ich
4b-/	nichts
4f	von
=11	=11
2a-	Lei-
2g-X}	-de,
=12	=12
{4f	füh-
4d-	-le
4g-	nichts
4e-	als
=13	=13
4a-	Andacht,
4f	.
4b-/}	Lieb'
{4d-	und
=14	=14
(>2d-	Freu-
4fqq	.
2e-)	.
=15	=15
2d-	-de.
2r}	.
==	==
!!!AGN: Erbauungs - Lied, religioes
!!!ONB: ESAC (Essen Associative Code) Database: FINK
!!!AMT: simple quadruple
!!!AIN: vox
!!!EED: Helmut Schaffrath
!!!EEV: 1.0
!!Text: Novalis
!!!RDF**kern: > = above
!!!GTL: Erbauungslieder
!!!source: Musikalischer Hausschatz der Deutschen. Eine Sammlung von über 1000 Liedern und Gesängen mit Singstimmen und Klavierbegleitung. Leipzig, Litterarisches Verlags-Haus.
!!!page: 764
!!!URL-scan: https://www.digitale-sammlungen.de/en/view/bsb11144622?page=644
!!!ENC: Anna Maria Matuszewska
!!!EEV: 2024/08/09
*-	*-